public/icons/hosting-sm.svg

<svg role="img" width="24" height="24" viewBox="0 0 24 24" fill="none" xmlns="http://www.w3.org/2000/svg">
<path d="M12.2055 14.9732H5.58625C3.81081 14.9732 2 14.1458 2 12.0387C2 10.0595 4.35116 9.19043 4.35116 9.19043C4.35116 9.19043 4.18713 7.55947 5.49619 6.51184C6.96928 5.34516 8.86051 5.87493 8.86051 5.87493C9.13062 5.02042 9.70131 4.27382 10.4821 3.75354C11.2628 3.23325 12.209 2.96907 13.1704 3.00289C16.8982 3.00289 17.4128 6.04458 17.4128 6.04458C17.4128 6.04458 18.828 6.116 19.571 6.93744C19.7903 7.204 19.9463 7.51038 20.0289 7.83655C20.1115 8.16273 20.1188 8.50136 20.0502 8.83031C20.6503 9.13087 21.1494 9.57829 21.4932 10.1237C21.8369 10.669 22.012 11.2914 21.9994 11.9226C21.9994 14.3809 19.5517 15 18.5418 15C17.5318 15 12.2055 14.9732 12.2055 14.9732Z" stroke="currentColor" stroke-miterlimit="10"/>
<path d="M6 18H2V22H6V18Z" fill="currentColor"/>
<path d="M14 18H10V22H14V18Z" fill="currentColor"/>
<path d="M23 18H19V22H23V18Z" fill="currentColor"/>
<path d="M12 15V20" stroke="currentColor" stroke-miterlimit="10"/>
<path d="M8 15V20H5" stroke="currentColor" stroke-miterlimit="10"/>
<path d="M16 15V20H20" stroke="currentColor" stroke-miterlimit="10"/>
</svg>

<svg role="img" xmlns="http://www.w3.org/2000/svg" width="24" height="24" fill="none" viewBox="0 0 24 24">
  <path stroke="currentColor" stroke-miterlimit="10" d="M12.2055 14.9732H5.5862C3.8108 14.9732 2 14.1458 2 12.0387c0-1.9792 2.3512-2.8483 2.3512-2.8483s-.164-1.631 1.145-2.6786c1.473-1.1666 3.3643-.6369 3.3643-.6369.2701-.8545.8408-1.601 1.6216-2.1214.7807-.5202 1.7269-.7844 2.6883-.7506 3.7278 0 4.2424 3.0417 4.2424 3.0417s1.4152.0714 2.1582.8928c.2193.2666.3753.573.4579.8991.0826.3262.0899.6649.0213.9938.6001.3006 1.0992.748 1.443 1.2934.3437.5453.5188 1.1677.5062 1.7989 0 2.4583-2.4477 3.0774-3.4576 3.0774-1.01 0-6.3363-.0268-6.3363-.0268Z"/>
  <path stroke="currentColor" stroke-miterlimit="10" d="M6 18H2v4h4v-4Zm8 0h-4v4h4v-4Zm9 0h-4v4h4v-4Z"/>
  <path stroke="currentColor" stroke-miterlimit="10" d="M12 15v3.0698M8 15v5H6m10-5v5h3"/>
</svg>
